packages/react-icons/icons/copy-all.svg

<svg width="25" height="25" viewBox="0 0 25 25" xmlns="http://www.w3.org/2000/svg"><path fill-rule="evenodd" clip-rule="evenodd" d="M9.78078 3.5C8.70204 3.5 7.82754 4.37451 7.82754 5.45328V16.7617C7.82754 17.8405 8.70204 18.715 9.78078 18.715H18.0049C19.0837 18.715 19.9581 17.8405 19.9581 16.7617V5.45328C19.9581 4.37451 19.0837 3.5 18.0049 3.5H9.78078ZM9.67797 5.45328C9.67797 5.3965 9.724 5.35048 9.78078 5.35048H18.0049C18.0617 5.35048 18.1077 5.3965 18.1077 5.45328V16.7617C18.1077 16.8185 18.0617 16.8646 18.0049 16.8646H9.78078C9.724 16.8646 9.67797 16.8185 9.67797 16.7617V5.45328ZM6.80256 7.41582H5.04453C5.09376 6.46732 5.85409 5.70697 6.80256 5.65774V7.41582ZM6.80256 17.9789L6.80256 16.2186H5.04209V14.4579H6.80256V12.6975H5.04209V10.9368H6.80256V9.17652H5.04209V7.49469L5.04199 7.51373V19.6415L5.04209 19.6605V17.9789H6.80256ZM6.90047 21.5L6.88146 21.4999H8.56321V19.7396H10.3235V21.4999H12.0841V19.7396H13.8444V21.4999H15.5413L15.5223 21.5H6.90047ZM6.80256 21.4975V19.7396H5.04454C5.09386 20.688 5.85415 21.4482 6.80256 21.4975ZM15.6051 19.7396H17.3782C17.3286 20.693 16.5605 21.4563 15.6051 21.4982V19.7396Z"/></svg>

<svg xmlns="http://www.w3.org/2000/svg" width="25" height="25"><path fill-rule="evenodd" d="M9.78 3.5a1.953 1.953 0 0 0-1.952 1.953v11.309c0 1.078.874 1.953 1.953 1.953h8.224a1.953 1.953 0 0 0 1.953-1.953V5.453A1.953 1.953 0 0 0 18.005 3.5H9.78Zm-.102 1.953c0-.057.046-.103.103-.103h8.224c.057 0 .103.046.103.103v11.309a.103.103 0 0 1-.103.103H9.78a.103.103 0 0 1-.103-.103V5.453ZM6.803 7.416H5.045c.049-.949.81-1.709 1.758-1.758v1.758Zm0 10.563v-1.76h-1.76v-1.761h1.76v-1.76h-1.76v-1.761h1.76v-1.76h-1.76V7.495l-.001.019V19.66 17.98h1.76ZM6.9 21.5h-.019 1.682v-1.76h1.76v1.76h1.761v-1.76h1.76v1.76h1.697H6.9Zm-.097-.003V19.74H5.045c.049.948.81 1.708 1.758 1.758Zm8.802-1.757h1.773a1.859 1.859 0 0 1-1.773 1.758V19.74Z" clip-rule="evenodd"/></svg>
